svgs/sharp-regular/pallet-box.svg

<svg xmlns="http://www.w3.org/2000/svg" viewBox="0 0 640 512"><!--! Font Awesome Pro 6.6.0 by @fontawesome - https://fontawesome.com License - https://fontawesome.com/license (Commercial License) Copyright 2024 Fonticons, Inc. --><path d="M464 48l-80 0 0 96L320 96l-64 48 0-96-80 0 0 192 288 0 0-192zm0-48l48 0 0 48 0 192 0 48-48 0-288 0-48 0 0-48 0-192 0-48 48 0 80 0L384 0l80 0zM0 320l24 0 40 0 24 0 24 0 184 0 24 0 24 0 184 0 24 0 24 0 40 0 24 0 0 48-24 0-40 0 0 96 40 0 24 0 0 48-24 0-40 0-24 0-24 0-184 0-24 0-24 0-184 0-24 0-24 0-40 0L0 512l0-48 24 0 40 0 0-96-40 0L0 368l0-48zM112 464l184 0 0-96-184 0 0 96zm232 0l184 0 0-96-184 0 0 96z"/></svg>

<svg xmlns="http://www.w3.org/2000/svg" viewBox="0 0 640 512"><!--! Font Awesome Pro 6.4.0 by @fontawesome - https://fontawesome.com License - https://fontawesome.com/license (Commercial License) Copyright 2023 Fonticons, Inc. --><path d="M464 48H384v96L320 96l-64 48V48H176V240H464V48zm0-48h48V48 240v48H464 176 128V240 48 0h48 80H384h80zM0 320H24 64 88h24H296h24 24H528h24 24 40 24v48H616 576v96h40 24v48H616 576 552 528 344 320 296 112 88 64 24 0V464H24 64V368H24 0V320zM112 464H296V368H112v96zm232 0H528V368H344v96z"/></svg>
